src/icons/haskell.svg

<svg xmlns="http://www.w3.org/2000/svg" viewBox="0 0 300 300">
  <g stroke-width="2.422">
    <path
      d="m23.928 240.5 59.94-89.852-59.94-89.855h44.955l59.94 89.855-59.94 89.852z"
      fill="#ef5350"
    />
    <path
      d="m83.869 240.5 59.94-89.852-59.94-89.855h44.955l119.88 179.71h-44.95l-37.46-56.156-37.468 56.156z"
      fill="#ffa726"
    />
    <path
      d="m228.72 188.08-19.98-29.953h69.93v29.956h-49.95zm-29.97-44.924-19.98-29.953h99.901v29.953z"
      fill="#ffee58"
    />
  </g>
</svg>

<svg viewBox="0 0 300 300" xmlns="http://www.w3.org/2000/svg">
  <path
    d="M23.928 240.5L83.868 150.648L23.928 60.793H68.883L128.823 150.648L68.883 240.5H23.928Z"
    fill="#5E5086"
  />
  <path
    d="M83.869 240.5L143.809 150.648L83.869 60.793H128.824L248.704 240.503H203.754L166.294 184.347L128.826 240.503L83.869 240.5Z"
    fill="#5E5086"
  />
  <path
    d="M228.72 188.08L208.74 158.127H278.67V188.083H228.72V188.08ZM198.75 143.156L178.77 113.203H278.671V143.156H198.75Z"
    fill="#5E5086"
  />
</svg>
